build/system/DoubleArrowRightSolid.svg

<svg xmlns="http://www.w3.org/2000/svg" fill="none" viewBox="0 0 24 24" focusable="false"><path d="M0 0H24V24H0z"/><path fill="#74767B" fill-rule="evenodd" d="M12 3C7.02944 3 3 7.02944 3 12C3 16.9706 7.02944 21 12 21C16.9706 21 21 16.9706 21 12C21 7.02944 16.9706 3 12 3ZM13.0378 15.3312C12.8578 15.3312 12.6878 15.2612 12.5578 15.1212C12.3178 14.8512 12.3378 14.4412 12.5978 14.2012L15.0976 11.9533L12.602 9.79702C12.332 9.55702 12.322 9.14702 12.562 8.87702C12.802 8.61702 13.212 8.59702 13.482 8.83702L16.4676 11.4333C16.7776 11.7133 16.7776 12.1933 16.4676 12.4733L13.4778 15.1612C13.3478 15.2812 13.1978 15.3312 13.0378 15.3312ZM9.13792 15.3312C8.95792 15.3312 8.78792 15.2612 8.65792 15.1212C8.41792 14.8512 8.43792 14.4412 8.69792 14.2012L11.1977 11.9533L8.70207 9.79704C8.43207 9.55704 8.42207 9.14704 8.66207 8.87704C8.90207 8.61704 9.31207 8.59704 9.58207 8.83704L12.5677 11.4333C12.8777 11.7133 12.8777 12.1933 12.5677 12.4733L9.57792 15.1612C9.44792 15.2812 9.29792 15.3312 9.13792 15.3312Z"/></svg>

<svg xmlns="http://www.w3.org/2000/svg" fill="none" viewBox="0 0 24 24" focusable="false"><path fill="#74767B" fill-rule="evenodd" d="M12 3c-4.98 0-9 4.02-9 9 0 4.97 4.02 9 9 9a9 9 0 0 0 9-9c0-4.98-4.03-9-9-9m1.03 12.33c-.18 0-.35-.07-.48-.21a.66.66 0 0 1 .04-.92l2.5-2.25-2.49-2.16a.65.65 0 0 1-.04-.92c.24-.26.65-.28.92-.04l2.98 2.6c.31.28.31.76 0 1.04l-2.99 2.69c-.13.12-.28.17-.44.17m-3.9 0c-.18 0-.35-.07-.48-.21a.66.66 0 0 1 .04-.92l2.5-2.25L8.7 9.79a.65.65 0 0 1-.04-.92c.24-.26.65-.28.92-.04l2.98 2.6c.31.28.31.76 0 1.04l-2.99 2.69c-.13.12-.28.17-.44.17"/></svg>
